svg/fluentui-system-icons/ic_fluent_headphones_sound_wave_32_filled.svg

<svg width="32" height="32" viewBox="0 0 32 32" fill="none" xmlns="http://www.w3.org/2000/svg">
<path d="M15.5 4C9.14873 4 4 9.14873 4 15.5V18H8C8.55228 18 9 18.4477 9 19V29C9 29.5523 8.55228 30 8 30H6.5C4.01472 30 2 27.9853 2 25.5V15.5C2 8.04416 8.04416 2 15.5 2C22.9558 2 29 8.04416 29 15.5V25.5C29 27.9853 26.9853 30 24.5 30H23C22.4477 30 22 29.5523 22 29V19C22 18.4477 22.4477 18 23 18H27V15.5C27 9.14873 21.8513 4 15.5 4ZM16.5 17C16.5 16.4477 16.0523 16 15.5 16C14.9477 16 14.5 16.4477 14.5 17V30C14.5 30.5523 14.9477 31 15.5 31C16.0523 31 16.5 30.5523 16.5 30V17ZM12 20C12.5523 20 13 20.4477 13 21V26C13 26.5523 12.5523 27 12 27C11.4477 27 11 26.5523 11 26V21C11 20.4477 11.4477 20 12 20ZM20 21C20 20.4477 19.5523 20 19 20C18.4477 20 18 20.4477 18 21V26C18 26.5523 18.4477 27 19 27C19.5523 27 20 26.5523 20 26V21Z" fill="#212121"/>
</svg>

<svg xmlns="http://www.w3.org/2000/svg" width="32" height="32"><path d="M15.5 4C9.149 4 4 9.149 4 15.5V18h4a1 1 0 0 1 1 1v10a1 1 0 0 1-1 1H6.5A4.5 4.5 0 0 1 2 25.5v-10C2 8.044 8.044 2 15.5 2S29 8.044 29 15.5v10a4.5 4.5 0 0 1-4.5 4.5H23a1 1 0 0 1-1-1V19a1 1 0 0 1 1-1h4v-2.5C27 9.149 21.851 4 15.5 4Zm1 13a1 1 0 1 0-2 0v13a1 1 0 1 0 2 0V17ZM12 20a1 1 0 0 1 1 1v5a1 1 0 1 1-2 0v-5a1 1 0 0 1 1-1Zm8 1a1 1 0 1 0-2 0v5a1 1 0 1 0 2 0v-5Z"/></svg>
